packages/starksheet-webapp/src/components/Footer/etherscan.svg

<svg width="16" height="16" viewBox="0 0 16 16" fill="none" xmlns="http://www.w3.org/2000/svg">
<g clip-path="url(#clip0_699_442)">
<path d="M3.32523 7.61785C3.32521 7.5285 3.34285 7.44002 3.37711 7.35751C3.41138 7.27499 3.46161 7.20006 3.52491 7.13702C3.58821 7.07398 3.66334 7.02408 3.74597 6.99017C3.82861 6.95626 3.91713 6.93902 4.00645 6.93943L5.13586 6.94314C5.31594 6.94314 5.48864 7.0147 5.61597 7.14208C5.74331 7.26946 5.81485 7.44223 5.81485 7.62237V11.8945C5.94207 11.8568 6.10524 11.8166 6.28399 11.7747C6.4081 11.7455 6.51871 11.6752 6.59788 11.5752C6.67706 11.4752 6.72015 11.3514 6.72019 11.2239V5.92459C6.72018 5.83538 6.73774 5.74704 6.77186 5.66461C6.80598 5.58219 6.856 5.5073 6.91905 5.44421C6.98211 5.38112 7.05697 5.33107 7.13936 5.29693C7.22175 5.26278 7.31005 5.2452 7.39923 5.2452H8.53087C8.71094 5.24522 8.88363 5.3168 9.01095 5.44417C9.13828 5.57155 9.20983 5.74429 9.20986 5.92443V10.843C9.20986 10.843 9.49307 10.7283 9.76914 10.6118C9.87165 10.5684 9.95913 10.4958 10.0207 10.403C10.0822 10.3102 10.1151 10.2013 10.1151 10.09V4.22621C10.1151 4.13702 10.1327 4.04869 10.1668 3.96629C10.2009 3.88388 10.2509 3.809 10.314 3.74593C10.377 3.68285 10.4519 3.63282 10.5343 3.59869C10.6166 3.56455 10.7049 3.54698 10.7941 3.54698H11.9257C12.1058 3.54698 12.2785 3.61854 12.4059 3.74592C12.5332 3.8733 12.6047 4.04606 12.6048 4.22621V9.05471C13.5859 8.34344 14.5802 7.48791 15.3693 6.45923C15.4837 6.30991 15.5595 6.13456 15.5898 5.94883C15.62 5.7631 15.6039 5.57277 15.5427 5.3948C15.0088 3.83831 14.0074 2.48477 12.6753 1.51926C11.3432 0.55375 9.7455 0.0233993 8.10066 0.000725261C3.66524 -0.0588784 -0.000397326 3.56305 3.83789e-05 8.00059C-0.00431666 9.40477 0.362041 10.7852 1.06207 12.0023C1.15861 12.1688 1.30063 12.3042 1.47146 12.3928C1.64229 12.4813 1.83482 12.5192 2.02645 12.5021C2.24054 12.4832 2.50708 12.4566 2.82395 12.4194C2.96187 12.4037 3.0892 12.3378 3.18169 12.2342C3.27417 12.1307 3.32536 11.9967 3.3255 11.8579V7.61785" fill="black"/>
<path d="M3.30084 14.4694C4.49368 15.3375 5.90333 15.8585 7.37383 15.9749C8.84433 16.0913 10.3183 15.7985 11.6328 15.1289C12.9473 14.4593 14.051 13.4389 14.8217 12.1808C15.5925 10.9227 16.0003 9.47574 16.0001 8.00013C16.0001 7.81592 15.9916 7.63379 15.9792 7.45264C13.0577 11.8112 7.66349 13.8489 3.30078 14.4696" fill="black"/>
</g>
<defs>
<clipPath id="clip0_699_442">
<rect width="16" height="16" fill="white"/>
</clipPath>
</defs>
</svg>

<svg xmlns="http://www.w3.org/2000/svg" width="16" height="16" fill="none" viewBox="0 0 16 16"><g fill="#000" clip-path="url(#a)"><path d="M3.325 7.618a.679.679 0 0 1 .681-.679l1.13.004a.679.679 0 0 1 .679.68v4.272c.127-.038.29-.078.469-.12a.566.566 0 0 0 .436-.551v-5.3a.68.68 0 0 1 .68-.679h1.13a.679.679 0 0 1 .68.68v4.918s.283-.115.56-.231a.567.567 0 0 0 .345-.522V4.226a.68.68 0 0 1 .68-.679h1.13a.68.68 0 0 1 .68.68v4.828c.98-.712 1.975-1.567 2.764-2.596a1.142 1.142 0 0 0 .174-1.064A7.987 7.987 0 0 0 8.1 0C3.665-.06 0 3.563 0 8a7.977 7.977 0 0 0 1.062 4.001 1.011 1.011 0 0 0 .964.5c.215-.019.481-.045.798-.083a.565.565 0 0 0 .502-.561v-4.24M3.3 14.47a7.994 7.994 0 0 0 12.68-7.017C13.057 11.81 7.662 13.849 3.3 14.47"/></g><defs><clipPath id="a"><path fill="#fff" d="M0 0h16v16H0z"/></clipPath></defs></svg>
